Newaita-dark/apps/32/preferences-system-notifications.svg

<svg height="32" viewBox="0 0 32 32" width="32" xmlns="http://www.w3.org/2000/svg" xmlns:xlink="http://www.w3.org/1999/xlink"><linearGradient id="a" gradientUnits="userSpaceOnUse" x1="15.87652" x2="15.87652" y1="28.033934" y2="29.35697800003"><stop offset="0" stop-opacity=".27451"/><stop offset="1" stop-opacity="0"/></linearGradient><linearGradient id="b"><stop offset="0" stop-opacity=".313726"/><stop offset=".222222" stop-opacity=".27451"/><stop offset="1" stop-opacity="0"/></linearGradient><radialGradient id="c" cx="450.908936" cy="189.579361" gradientTransform="matrix(.00000017 -.0781325 -.140638 -.0000001 34.600327 63.595331)" gradientUnits="userSpaceOnUse" r="21.166656" xlink:href="#b"/><radialGradient id="d" cx="450.908936" cy="189.579361" gradientTransform="matrix(-.00000017 .0781325 .140638 .0000001 -18.723815 -7.527481)" gradientUnits="userSpaceOnUse" r="21.166656" xlink:href="#b"/><radialGradient id="e" cx="450.908936" cy="189.579361" gradientTransform="matrix(-.00000017 -.0781325 .140638 -.0000001 -18.723815 63.595331)" gradientUnits="userSpaceOnUse" r="21.166656" xlink:href="#b"/><radialGradient id="f" cx="450.908936" cy="189.579361" gradientTransform="matrix(.00000017 .0781325 -.140638 .0000001 34.600325 -7.527481)" gradientUnits="userSpaceOnUse" r="21.166656" xlink:href="#b"/><linearGradient id="g"><stop offset="0" stop-color="#e0e0e0"/><stop offset="1" stop-color="#eee"/></linearGradient><linearGradient id="h" gradientUnits="userSpaceOnUse" x1="15.876524" x2="15.876524" xlink:href="#g" y1="30.68002200006" y2="1.57306100003"/><linearGradient id="i" gradientUnits="userSpaceOnUse" x1="25.4685945" x2="25.4685945" y1="37.62599975008" y2="1.24229850004"><stop offset="0" stop-color="#5c6bc0"/><stop offset="1" stop-color="#7986cb"/></linearGradient><linearGradient id="j" gradientUnits="userSpaceOnUse" x1="23.81472" x2="23.81472" xlink:href="#g" y1="16.12650318741" y2="2.89610370009"/><path d="m7.609375 28.035156h.660156v1.320313h-.660156zm0 0" fill="url(#a)"/><path d="m8.269531 28.035156h2.644531v-1.324218h-2.644531zm0 0" fill="url(#c)"/><path d="m7.609375 28.035156h-2.648437v1.320313h2.648437zm0 0" fill="url(#d)"/><path d="m7.609375 28.035156h-2.648437v-1.324218h2.648437zm0 0" fill="url(#e)"/><path d="m8.269531 28.035156h2.644531v1.320313h-2.644531zm0 0" fill="url(#f)"/><path d="m3.96875 4.25c-.734375 0-1.324219.554688-1.324219 1.25v17.316406c0 .691406.589844 1.25 1.324219 1.25h.847656c0 .003906.003906.007813.007813.015625l1.984375 3.304688c.238281.398437.667968.640625 1.128906.640625.464844 0 .890625-.242188 1.128906-.640625l1.984375-3.304688c.003907-.007812.007813-.011719.007813-.015625h15.371094c.734374 0 1.324218-.558594 1.324218-1.25v-17.316406c0-.695312-.589844-1.25-1.324218-1.25zm0 0" fill="url(#h)"/><path d="m2.644531 22.484375v.332031c0 .691406.589844 1.25 1.324219 1.25h.847656c0 .003906.003906.007813.007813.015625l1.984375 3.304688c.238281.398437.667968.640625 1.128906.640625.464844 0 .890625-.242188 1.128906-.640625l1.984375-3.304688c.003907-.007812.007813-.011719.007813-.015625h15.371094c.734374 0 1.324218-.558594 1.324218-1.25v-.332031c0 .691406-.589844 1.25-1.324218 1.25h-15.371094c0 .003906-.003906.011719-.007813.015625l-1.984375 3.308594c-.238281.394531-.664062.636718-1.128906.636718-.460938 0-.890625-.242187-1.128906-.636718l-1.984375-3.308594c-.003907-.003906-.007813-.011719-.007813-.015625h-.847656c-.734375 0-1.324219-.558594-1.324219-1.25zm0 0" fill-opacity=".235294"/><path d="m239.977096 256.983347c-44.405211 0-80.071098 33.540106-80.071098 75.583337v1047.06542c0 41.807033 35.665887 75.583337 80.071098 75.583337h51.254951c0 .236198.236197.472396.472395.944792l119.988548 199.823448c14.408074 24.092189 40.389846 38.73646 68.261202 38.73646 28.107553 0 53.853128-14.644271 68.261201-38.73646l119.988548-199.823448c.236198-.472396.472396-.708594.472396-.944792h929.438851c44.405211 0 80.071098-33.776304 80.071098-75.583337v-1047.06542c0-42.043231-35.665887-75.583337-80.071098-75.583337zm0 0" fill="none" stroke="#212121" stroke-width="11.338583" transform="scale(.016538)"/><path d="m3.96875 4.25c-.734375 0-1.324219.554688-1.324219 1.25v.296875c0-.691406.589844-1.25 1.324219-1.25h22.460938c.734374 0 1.324218.558594 1.324218 1.25v-.296875c0-.695312-.589844-1.25-1.324218-1.25zm0 0" fill="#fff" fill-opacity=".470588"/><path d="m23.816406 2.894531c3.652344 0 6.613282 2.964844 6.613282 6.617188 0 3.652343-2.960938 6.613281-6.613282 6.613281-3.65625 0-6.617187-2.960938-6.617187-6.613281 0-3.652344 2.960937-6.617188 6.617187-6.617188zm0 0" fill="url(#i)"/><path d="m17.203125 9.675781c-.003906.054688-.003906.109375-.003906.167969 0 3.664062 2.949219 6.613281 6.617187 6.613281 1.476563 0 2.839844-.480469 3.9375-1.292969v-.332031c-1.097656.8125-2.460937 1.292969-3.9375 1.292969-3.609375 0-6.527344-2.859375-6.613281-6.449219zm0 0" fill-opacity=".235294"/><path d="m23.816406 2.894531c-3.667968 0-6.617187 2.953125-6.617187 6.617188v.082031c.042969-3.625 2.976562-6.53125 6.617187-6.53125 3.636719 0 6.570313 2.90625 6.613282 6.53125 0-.027344 0-.054688 0-.082031 0-3.664063-2.949219-6.617188-6.613282-6.617188zm0 0" fill="#fff" fill-opacity=".392157"/><path d="m381.026114-168.691922c58.43192 0 105.802396 47.43297 105.802396 105.86489 0 58.43192-47.370476 105.802397-105.802396 105.802397-58.494414 0-105.864891-47.370477-105.864891-105.802397s47.370477-105.86489 105.864891-105.86489zm0 0" fill="none" stroke="#212121" stroke-linecap="round" stroke-linejoin="round" stroke-width="3" transform="matrix(.062506 0 0 .062506 0 13.438783)"/><path d="m23.152344 4.21875c-.367188 0-.660156.296875-.660156.660156v5.292969c0 .367187.292968.664063.660156.664063h1.324218c.367188 0 .660157-.296876.660157-.664063v-5.292969c0-.363281-.292969-.660156-.660157-.660156zm.664062 7.9375c-.734375 0-1.324218.589844-1.324218 1.324219s.589843 1.324219 1.324218 1.324219c.730469 0 1.320313-.589844 1.320313-1.324219s-.589844-1.324219-1.320313-1.324219zm0 0" fill="url(#j)"/><path d="m23.152344 4.21875c-.367188 0-.660156.296875-.660156.660156v.332032c0-.367188.292968-.660157.660156-.660157h1.324218c.367188 0 .660157.292969.660157.660157v-.332032c0-.363281-.292969-.660156-.660157-.660156zm.664062 7.9375c-.734375 0-1.324218.589844-1.324218 1.324219 0 .054687.003906.109375.007812.164062.082031-.652343.636719-1.15625 1.316406-1.15625.675782 0 1.230469.503907 1.3125 1.15625.003906-.054687.007813-.109375.007813-.164062 0-.734375-.589844-1.324219-1.320313-1.324219zm0 0" fill="#fff" fill-opacity=".470588"/><path d="m22.492188 10.171875v.332031c0 .367188.292968.660156.660156.660156h1.324218c.367188 0 .660157-.292968.660157-.660156v-.332031c0 .367187-.292969.664063-.660157.664063h-1.324218c-.367188 0-.660156-.296876-.660156-.664063zm.007812 3.472656c-.003906.054688-.007812.109375-.007812.167969 0 .730469.589843 1.320312 1.324218 1.320312.730469 0 1.320313-.589843 1.320313-1.320312 0-.058594-.003907-.113281-.007813-.167969-.082031.65625-.636718 1.160157-1.3125 1.160157-.679687 0-1.234375-.503907-1.316406-1.160157zm0 0" fill-opacity=".235294"/><path d="m1399.945126 255.093763c-22.202606 0-39.91745 17.951043-39.91745 39.91745v320.048194c0 22.202606 17.714844 40.153648 39.91745 40.153648h80.071098c22.202605 0 39.91745-17.951042 39.91745-40.153648v-320.048194c0-21.966407-17.714845-39.91745-39.91745-39.91745zm40.153648 479.954192c-44.405211 0-80.071098 35.665888-80.071098 80.071098 0 44.405211 35.665887 80.071098 80.071098 80.071098 44.169012 0 79.8349-35.665887 79.8349-80.071098 0-44.40521-35.665888-80.071098-79.8349-80.071098zm0 0" fill="none" stroke="#212121" stroke-linecap="round" stroke-linejoin="round" stroke-width="11.338583" transform="scale(.016538)"/></svg>

<?xml version="1.0" encoding="UTF-8"?>
<svg xmlns="http://www.w3.org/2000/svg" xmlns:xlink="http://www.w3.org/1999/xlink" width="32px" height="32px" viewBox="0 0 32 32" version="1.1">
<defs>
<linearGradient id="linear0" gradientUnits="userSpaceOnUse" x1="254" y1="233.5" x2="254" y2="254.666672" gradientTransform="matrix(0.062506,0,0,0.062506,-0.00000381506,13.438783)">
<stop offset="0" style="stop-color:rgb(0%,0%,0%);stop-opacity:0.27451;"/>
<stop offset="1" style="stop-color:rgb(0%,0%,0%);stop-opacity:0;"/>
</linearGradient>
<radialGradient id="radial0" gradientUnits="userSpaceOnUse" cx="450.908936" cy="189.579361" fx="450.908936" fy="189.579361" r="21.166656" gradientTransform="matrix(0.00000017417,-0.0781325,-0.140638,-0.000000101539,34.600327,63.595331)">
<stop offset="0" style="stop-color:rgb(0%,0%,0%);stop-opacity:0.313726;"/>
<stop offset="0.222222" style="stop-color:rgb(0%,0%,0%);stop-opacity:0.27451;"/>
<stop offset="1" style="stop-color:rgb(0%,0%,0%);stop-opacity:0;"/>
</radialGradient>
<radialGradient id="radial1" gradientUnits="userSpaceOnUse" cx="450.908936" cy="189.579361" fx="450.908936" fy="189.579361" r="21.166656" gradientTransform="matrix(-0.00000017417,0.0781325,0.140638,0.000000101539,-18.723815,-7.527481)">
<stop offset="0" style="stop-color:rgb(0%,0%,0%);stop-opacity:0.313726;"/>
<stop offset="0.222222" style="stop-color:rgb(0%,0%,0%);stop-opacity:0.27451;"/>
<stop offset="1" style="stop-color:rgb(0%,0%,0%);stop-opacity:0;"/>
</radialGradient>
<radialGradient id="radial2" gradientUnits="userSpaceOnUse" cx="450.908936" cy="189.579361" fx="450.908936" fy="189.579361" r="21.166656" gradientTransform="matrix(-0.00000017417,-0.0781325,0.140638,-0.000000101539,-18.723815,63.595331)">
<stop offset="0" style="stop-color:rgb(0%,0%,0%);stop-opacity:0.313726;"/>
<stop offset="0.222222" style="stop-color:rgb(0%,0%,0%);stop-opacity:0.27451;"/>
<stop offset="1" style="stop-color:rgb(0%,0%,0%);stop-opacity:0;"/>
</radialGradient>
<radialGradient id="radial3" gradientUnits="userSpaceOnUse" cx="450.908936" cy="189.579361" fx="450.908936" fy="189.579361" r="21.166656" gradientTransform="matrix(0.00000017417,0.0781325,-0.140638,0.000000101539,34.600325,-7.527481)">
<stop offset="0" style="stop-color:rgb(0%,0%,0%);stop-opacity:0.313726;"/>
<stop offset="0.222222" style="stop-color:rgb(0%,0%,0%);stop-opacity:0.27451;"/>
<stop offset="1" style="stop-color:rgb(0%,0%,0%);stop-opacity:0;"/>
</radialGradient>
<linearGradient id="linear1" gradientUnits="userSpaceOnUse" x1="254" y1="275.833344" x2="254" y2="-189.833328" gradientTransform="matrix(0.062506,0,0,0.062506,0,13.438783)">
<stop offset="0" style="stop-color:rgb(87.843138%,87.843138%,87.843138%);stop-opacity:1;"/>
<stop offset="1" style="stop-color:rgb(93.333334%,93.333334%,93.333334%);stop-opacity:1;"/>
</linearGradient>
<linearGradient id="linear2" gradientUnits="userSpaceOnUse" x1="381" y1="275.833344" x2="381" y2="-189.833328" gradientTransform="matrix(0.0781325,0,0,0.0781325,-4.299888,16.074451)">
<stop offset="0" style="stop-color:rgb(36.078432%,41.960785%,75.294119%);stop-opacity:1;"/>
<stop offset="1" style="stop-color:rgb(47.450981%,52.549022%,79.607844%);stop-opacity:1;"/>
</linearGradient>
<linearGradient id="linear3" gradientUnits="userSpaceOnUse" x1="1440" y1="975.118103" x2="1440" y2="175.118134" gradientTransform="matrix(0.016538,0,0,0.016538,0,0)">
<stop offset="0" style="stop-color:rgb(87.843138%,87.843138%,87.843138%);stop-opacity:1;"/>
<stop offset="1" style="stop-color:rgb(93.333334%,93.333334%,93.333334%);stop-opacity:1;"/>
</linearGradient>
</defs>
<g id="surface1">
<path style=" stroke:none;fill-rule:nonzero;fill:url(#linear0);" d="M 7.609375 28.035156 L 8.269531 28.035156 L 8.269531 29.355469 L 7.609375 29.355469 Z M 7.609375 28.035156 "/>
<path style=" stroke:none;fill-rule:nonzero;fill:url(#radial0);" d="M 8.269531 28.035156 L 10.914062 28.035156 L 10.914062 26.710938 L 8.269531 26.710938 Z M 8.269531 28.035156 "/>
<path style=" stroke:none;fill-rule:nonzero;fill:url(#radial1);" d="M 7.609375 28.035156 L 4.960938 28.035156 L 4.960938 29.355469 L 7.609375 29.355469 Z M 7.609375 28.035156 "/>
<path style=" stroke:none;fill-rule:nonzero;fill:url(#radial2);" d="M 7.609375 28.035156 L 4.960938 28.035156 L 4.960938 26.710938 L 7.609375 26.710938 Z M 7.609375 28.035156 "/>
<path style=" stroke:none;fill-rule:nonzero;fill:url(#radial3);" d="M 8.269531 28.035156 L 10.914062 28.035156 L 10.914062 29.355469 L 8.269531 29.355469 Z M 8.269531 28.035156 "/>
<path style=" stroke:none;fill-rule:nonzero;fill:url(#linear1);" d="M 3.96875 4.25 C 3.234375 4.25 2.644531 4.804688 2.644531 5.5 L 2.644531 22.816406 C 2.644531 23.507812 3.234375 24.066406 3.96875 24.066406 L 4.816406 24.066406 C 4.816406 24.070312 4.820312 24.074219 4.824219 24.082031 L 6.808594 27.386719 C 7.046875 27.785156 7.476562 28.027344 7.9375 28.027344 C 8.402344 28.027344 8.828125 27.785156 9.066406 27.386719 L 11.050781 24.082031 C 11.054688 24.074219 11.058594 24.070312 11.058594 24.066406 L 26.429688 24.066406 C 27.164062 24.066406 27.753906 23.507812 27.753906 22.816406 L 27.753906 5.5 C 27.753906 4.804688 27.164062 4.25 26.429688 4.25 Z M 3.96875 4.25 "/>
<path style=" stroke:none;fill-rule:nonzero;fill:rgb(0%,0%,0%);fill-opacity:0.235294;" d="M 2.644531 22.484375 L 2.644531 22.816406 C 2.644531 23.507812 3.234375 24.066406 3.96875 24.066406 L 4.816406 24.066406 C 4.816406 24.070312 4.820312 24.074219 4.824219 24.082031 L 6.808594 27.386719 C 7.046875 27.785156 7.476562 28.027344 7.9375 28.027344 C 8.402344 28.027344 8.828125 27.785156 9.066406 27.386719 L 11.050781 24.082031 C 11.054688 24.074219 11.058594 24.070312 11.058594 24.066406 L 26.429688 24.066406 C 27.164062 24.066406 27.753906 23.507812 27.753906 22.816406 L 27.753906 22.484375 C 27.753906 23.175781 27.164062 23.734375 26.429688 23.734375 L 11.058594 23.734375 C 11.058594 23.738281 11.054688 23.746094 11.050781 23.75 L 9.066406 27.058594 C 8.828125 27.453125 8.402344 27.695312 7.9375 27.695312 C 7.476562 27.695312 7.046875 27.453125 6.808594 27.058594 L 4.824219 23.75 C 4.820312 23.746094 4.816406 23.738281 4.816406 23.734375 L 3.96875 23.734375 C 3.234375 23.734375 2.644531 23.175781 2.644531 22.484375 Z M 2.644531 22.484375 "/>
<path style="fill:none;stroke-width:11.338583;stroke-linecap:butt;stroke-linejoin:miter;stroke:rgb(12.941177%,12.941177%,12.941177%);stroke-opacity:1;stroke-miterlimit:4;" d="M 239.977096 256.983347 C 195.571885 256.983347 159.905998 290.523453 159.905998 332.566684 L 159.905998 1379.632104 C 159.905998 1421.439137 195.571885 1455.215441 239.977096 1455.215441 L 291.232047 1455.215441 C 291.232047 1455.451639 291.468244 1455.687837 291.704442 1456.160233 L 411.69299 1655.983681 C 426.101064 1680.07587 452.082836 1694.720141 479.954192 1694.720141 C 508.061745 1694.720141 533.80732 1680.07587 548.215393 1655.983681 L 668.203941 1456.160233 C 668.440139 1455.687837 668.676337 1455.451639 668.676337 1455.215441 L 1598.115188 1455.215441 C 1642.520399 1455.215441 1678.186286 1421.439137 1678.186286 1379.632104 L 1678.186286 332.566684 C 1678.186286 290.523453 1642.520399 256.983347 1598.115188 256.983347 Z M 239.977096 256.983347 " transform="matrix(0.016538,0,0,0.016538,0,0)"/>
<path style=" stroke:none;fill-rule:nonzero;fill:rgb(100%,100%,100%);fill-opacity:0.470588;" d="M 3.96875 4.25 C 3.234375 4.25 2.644531 4.804688 2.644531 5.5 L 2.644531 5.796875 C 2.644531 5.105469 3.234375 4.546875 3.96875 4.546875 L 26.429688 4.546875 C 27.164062 4.546875 27.753906 5.105469 27.753906 5.796875 L 27.753906 5.5 C 27.753906 4.804688 27.164062 4.25 26.429688 4.25 Z M 3.96875 4.25 "/>
<path style=" stroke:none;fill-rule:nonzero;fill:url(#linear2);" d="M 23.816406 2.894531 C 27.46875 2.894531 30.429688 5.859375 30.429688 9.511719 C 30.429688 13.164062 27.46875 16.125 23.816406 16.125 C 20.160156 16.125 17.199219 13.164062 17.199219 9.511719 C 17.199219 5.859375 20.160156 2.894531 23.816406 2.894531 Z M 23.816406 2.894531 "/>
<path style=" stroke:none;fill-rule:nonzero;fill:rgb(0%,0%,0%);fill-opacity:0.235294;" d="M 17.203125 9.675781 C 17.199219 9.730469 17.199219 9.785156 17.199219 9.84375 C 17.199219 13.507812 20.148438 16.457031 23.816406 16.457031 C 25.292969 16.457031 26.65625 15.976562 27.753906 15.164062 L 27.753906 14.832031 C 26.65625 15.644531 25.292969 16.125 23.816406 16.125 C 20.207031 16.125 17.289062 13.265625 17.203125 9.675781 Z M 17.203125 9.675781 "/>
<path style=" stroke:none;fill-rule:nonzero;fill:rgb(100%,100%,100%);fill-opacity:0.392157;" d="M 23.816406 2.894531 C 20.148438 2.894531 17.199219 5.847656 17.199219 9.511719 C 17.199219 9.539062 17.199219 9.566406 17.199219 9.59375 C 17.242188 5.96875 20.175781 3.0625 23.816406 3.0625 C 27.453125 3.0625 30.386719 5.96875 30.429688 9.59375 C 30.429688 9.566406 30.429688 9.539062 30.429688 9.511719 C 30.429688 5.847656 27.480469 2.894531 23.816406 2.894531 Z M 23.816406 2.894531 "/>
<path style="fill:none;stroke-width:3;stroke-linecap:round;stroke-linejoin:round;stroke:rgb(12.941177%,12.941177%,12.941177%);stroke-opacity:1;stroke-miterlimit:4;" d="M 381.026114 -168.691922 C 439.458034 -168.691922 486.82851 -121.258952 486.82851 -62.827032 C 486.82851 -4.395112 439.458034 42.975365 381.026114 42.975365 C 322.5317 42.975365 275.161223 -4.395112 275.161223 -62.827032 C 275.161223 -121.258952 322.5317 -168.691922 381.026114 -168.691922 Z M 381.026114 -168.691922 " transform="matrix(0.062506,0,0,0.062506,0,13.438783)"/>
<path style=" stroke:none;fill-rule:nonzero;fill:url(#linear3);" d="M 23.152344 4.21875 C 22.785156 4.21875 22.492188 4.515625 22.492188 4.878906 L 22.492188 10.171875 C 22.492188 10.539062 22.785156 10.835938 23.152344 10.835938 L 24.476562 10.835938 C 24.84375 10.835938 25.136719 10.539062 25.136719 10.171875 L 25.136719 4.878906 C 25.136719 4.515625 24.84375 4.21875 24.476562 4.21875 Z M 23.816406 12.15625 C 23.082031 12.15625 22.492188 12.746094 22.492188 13.480469 C 22.492188 14.214844 23.082031 14.804688 23.816406 14.804688 C 24.546875 14.804688 25.136719 14.214844 25.136719 13.480469 C 25.136719 12.746094 24.546875 12.15625 23.816406 12.15625 Z M 23.816406 12.15625 "/>
<path style=" stroke:none;fill-rule:nonzero;fill:rgb(100%,100%,100%);fill-opacity:0.470588;" d="M 23.152344 4.21875 C 22.785156 4.21875 22.492188 4.515625 22.492188 4.878906 L 22.492188 5.210938 C 22.492188 4.84375 22.785156 4.550781 23.152344 4.550781 L 24.476562 4.550781 C 24.84375 4.550781 25.136719 4.84375 25.136719 5.210938 L 25.136719 4.878906 C 25.136719 4.515625 24.84375 4.21875 24.476562 4.21875 Z M 23.816406 12.15625 C 23.082031 12.15625 22.492188 12.746094 22.492188 13.480469 C 22.492188 13.535156 22.496094 13.589844 22.5 13.644531 C 22.582031 12.992188 23.136719 12.488281 23.816406 12.488281 C 24.492188 12.488281 25.046875 12.992188 25.128906 13.644531 C 25.132812 13.589844 25.136719 13.535156 25.136719 13.480469 C 25.136719 12.746094 24.546875 12.15625 23.816406 12.15625 Z M 23.816406 12.15625 "/>
<path style=" stroke:none;fill-rule:nonzero;fill:rgb(0%,0%,0%);fill-opacity:0.235294;" d="M 22.492188 10.171875 L 22.492188 10.503906 C 22.492188 10.871094 22.785156 11.164062 23.152344 11.164062 L 24.476562 11.164062 C 24.84375 11.164062 25.136719 10.871094 25.136719 10.503906 L 25.136719 10.171875 C 25.136719 10.539062 24.84375 10.835938 24.476562 10.835938 L 23.152344 10.835938 C 22.785156 10.835938 22.492188 10.539062 22.492188 10.171875 Z M 22.5 13.644531 C 22.496094 13.699219 22.492188 13.753906 22.492188 13.8125 C 22.492188 14.542969 23.082031 15.132812 23.816406 15.132812 C 24.546875 15.132812 25.136719 14.542969 25.136719 13.8125 C 25.136719 13.753906 25.132812 13.699219 25.128906 13.644531 C 25.046875 14.300781 24.492188 14.804688 23.816406 14.804688 C 23.136719 14.804688 22.582031 14.300781 22.5 13.644531 Z M 22.5 13.644531 "/>
<path style="fill:none;stroke-width:11.338583;stroke-linecap:round;stroke-linejoin:round;stroke:rgb(12.941177%,12.941177%,12.941177%);stroke-opacity:1;stroke-miterlimit:4;" d="M 1399.945126 255.093763 C 1377.74252 255.093763 1360.027676 273.044806 1360.027676 295.011213 L 1360.027676 615.059407 C 1360.027676 637.262013 1377.74252 655.213055 1399.945126 655.213055 L 1480.016224 655.213055 C 1502.218829 655.213055 1519.933674 637.262013 1519.933674 615.059407 L 1519.933674 295.011213 C 1519.933674 273.044806 1502.218829 255.093763 1480.016224 255.093763 Z M 1440.098774 735.047955 C 1395.693563 735.047955 1360.027676 770.713843 1360.027676 815.119053 C 1360.027676 859.524264 1395.693563 895.190151 1440.098774 895.190151 C 1484.267786 895.190151 1519.933674 859.524264 1519.933674 815.119053 C 1519.933674 770.713843 1484.267786 735.047955 1440.098774 735.047955 Z M 1440.098774 735.047955 " transform="matrix(0.016538,0,0,0.016538,0,0)"/>
</g>
</svg>
